X:1
T:Title
%%score { 1 | 2 }
L:1/8
Q:1/4=100
M:4/4
K:C
V:1 treble nm="Grand Piano"
V:2 bass 
V:1
 [Ec][Ec][GB][GB] [FA][FA][EG]E | C2 [FA]2 [EG]4 | [Ec][Ec][GB][GB] [FA][FA][EG]E | D2 ^F2 [B,G]4 | %4
w: C.~F.~Weigle * * * * * * *||||
 [B,D][CE][DF][EG] [CE] [EG]3 | [B,D][CE][DF][EG] [CE] [EG]3 | A>B cA G c2 c |[M:7/8] c2 B2 [Ec]3 | %8
w: ||||
[M:1/8] [EG] |[M:4/4] [FG]2 [Fe]2 [B,Fd]3 [DFG] | [CEG]2 [Ed]2 [Gc]3 [Ec] | c>B BA c B2 A | %12
w: ||||
[M:7/8] [CFA]2 [G,CE]2 [CEG]3 |[M:1/8] [CG] |[M:4/4] [B,FG]2 [Fe]2 d3 G | G2 d2 c3 G | %16
w: ||||
 A>[CGB] [CAc][CFA] [CEG] [CGc]2 [Dc] | [EGc]2 [DFB]2 [CEc]4 |] %18
w: ||
V:2
 [C,G,][C,G,][C,G,][C,G,] [C,C][C,C][C,C][C,G,C] | [C,E,]2 [C,B,]2 [C,C]4 | %2
 [C,G,][C,G,][C,G,][C,G,] [C,C][C,C][C,C][C,G,C] | [D,G,B,]2 [D,A,C]2 [G,,G,]4 | %4
 [G,,G,][G,,G,][G,,G,][G,,G,] [C,G,] [C,C]3 | [G,,G,][G,,G,][G,,G,][G,,G,] [C,G,] [C,C]3 | %6
 [F,CF]>[F,CF] [F,CF][F,CF] [G,CE] [G,CE]2 [G,CE] |[M:7/8] [G,EG]2 [G,DF]2[K:bass] [C,C]3 | %8
[M:1/8] [C,C] |[M:4/4] [D,B,]2 [B,,G,]2 G,,3 B,, | C,2 [D,G,]2 [E,C]3 [C,C] | %11
 [G,DF]>[G,DF] [G,DF][G,DF] [G,DF] [G,DF]2 [G,B,F] |[M:7/8][K:bass] C,2 C,2 C,3 |[M:1/8] E, | %14
[M:4/4] D,2 [B,,G,]2 [G,,B,F]3 [G,B,] | [G,B,F]2 [^G,B,F]2[K:bass] [A,CE]3 [E,C] | %16
 [F,CF]>F, F,F, C, E,2 ^F, | G,2 G,,2 C,4 |] %18

